assets/web/icons/web-browser.svg

<svg width="24" height="24" viewBox="0 0 24 24" fill="none" xmlns="http://www.w3.org/2000/svg">
<path d="M4 20C3.45 20 2.97917 19.8042 2.5875 19.4125C2.19583 19.0208 2 18.55 2 18V6C2 5.45 2.19583 4.97917 2.5875 4.5875C2.97917 4.19583 3.45 4 4 4H20C20.55 4 21.0208 4.19583 21.4125 4.5875C21.8042 4.97917 22 5.45 22 6V18C22 18.55 21.8042 19.0208 21.4125 19.4125C21.0208 19.8042 20.55 20 20 20H4ZM4 18H20V8H4V18Z" fill="currentColor"/>
</svg>

<svg xmlns="http://www.w3.org/2000/svg" width="24" height="24" fill="currentColor" viewBox="0 0 24 24">
  <path d="M4 20c-.55 0-1.02-.196-1.413-.587A1.926 1.926 0 0 1 2 18V6c0-.55.196-1.02.587-1.412A1.926 1.926 0 0 1 4 4h16c.55 0 1.02.196 1.413.588.391.391.587.862.587 1.412v12c0 .55-.196 1.02-.587 1.413A1.926 1.926 0 0 1 20 20H4Zm0-2h16V8H4v10Z"/>
</svg>
